X: 1
T: Road to Malvern
C: Jim Childress
N: as played by Light and Hitch
R: reel
Z: 2011 John Chambers <jc:trillian.mit.edu>
M: 2/4
L: 1/16
K: A
cd |\
efed cBAc | BAcA EFEF | [AF]AAF E2AB | cBAc [B2E2]ee- | [ee]fed cBAc | BAcA EFEF |
AFAF E2AB | cABc [AF]A :: AB | cBAA EFA2 | ^AB2=A [B2E2]AB | cBA2 [=f2c2][^f2d2] | [eB]c2f [e2c2]AB |
cBAA EFA2 | ^AB2=A [B2E2]AB |1 cABc [AF]AAB :|2 cABc [AF]Acd | cABc A4- | A8 |]

%%sep 1 1 500

